X:1
T:Susie Brodie
T:Susie Brodie
T:Niel Gow
C:Niel Gow
L:1/8
Q:1/8=128
M:4/4
K:G
V:1 treble 
V:1
 g |: d<G B>G cF A<g | d<G B>G dG BG | c<a B<g c=F A<c | d>c B>A d<G B<g | G<g B<g c=F Ac | %6
 G<g B<g Gg BG | c<a B<g c=F Ac | d>c B>A dG B<g | G<g B<g c=F Ac | G<g B<g dg Bg | %11
 (3(cac) (3(BgB) c=F A<c | d>c B>A dG B<g | d<G B>G cF A<g | d<G B>G dG BG | c<a B<g c=F A<c | %16
 d>c B>A d<G B<g :| %17

